icons/op-upload-arrow-24.svg

<svg width="24" height="24" viewBox="0 0 24 24" fill="none" xmlns="http://www.w3.org/2000/svg">
<path d="M11.125 7.22442L8.28733 9.95453L7.05008 8.76379L12 4L16.9498 8.76379L15.7126 9.95453L12.875 7.22442L12.875 16.6349H11.125V7.22442Z" fill="black"/>
<path d="M18.125 18.3158H5.875C5.64294 18.3158 5.42038 18.4045 5.25628 18.5624C5.09219 18.7204 5 18.9345 5 19.1579C5 19.3812 5.09219 19.5954 5.25628 19.7533C5.42038 19.9113 5.64294 20 5.875 20H18.125C18.3571 20 18.5796 19.9113 18.7437 19.7533C18.9078 19.5954 19 19.3812 19 19.1579C19 18.9345 18.9078 18.7204 18.7437 18.5624C18.5796 18.4045 18.3571 18.3158 18.125 18.3158Z" fill="black"/>
</svg>

<svg xmlns="http://www.w3.org/2000/svg" width="24" height="24" viewBox="0 0 24 24"><path d="M11.125 7.224 8.287 9.955 7.05 8.764 12 4l4.95 4.764-1.237 1.191-2.838-2.731v9.411h-1.75V7.224Zm7 11.092H5.875a.892.892 0 0 0-.619.246.827.827 0 0 0-.256.596c0 .223.092.437.256.595a.893.893 0 0 0 .619.247h12.25a.893.893 0 0 0 .619-.247.826.826 0 0 0 .256-.595.827.827 0 0 0-.256-.596.892.892 0 0 0-.619-.246Z"/></svg>
